!!!COM: Frye, Walter
!!!CDT: <1443-c1474
!!!COM2: Binchois, Gilles
!!!OTL: Tout a par moy
!!!AGN: Song; Chanson; Rondeau
!!!SCT: Fry3005/Bin3070
!!!SCA: Fry3005/Bin3070
!!!voices: 3
**kern	**text	**text	**text	**kern	**text	**text	**text	**kern	**text	**text	**text
*staff3	*staff3	*staff3	*staff3	*staff2	*staff2	*staff2	*staff2	*staff1	*staff1	*staff1	*staff1
*Ivox	*	*	*	*Ivox	*	*	*	*Ivox	*	*	*
*I"Contratenor	*	*	*	*I"Tenor	*	*	*	*I"Discantus	*	*	*
*I'Ct	*	*	*	*I'T	*	*	*	*I'D	*	*	*
*clefF4	*	*	*	*clefGv2	*	*	*	*clefG2	*	*	*
*k[b-]	*	*	*	*k[b-]	*	*	*	*k[]	*	*	*
*M3/1	*	*	*	*M3/1	*	*	*	*M3/1	*	*	*
*met(O)	*	*	*	*met(O)	*	*	*	*met(O)	*	*	*
!!!OMD: Rondeau
=1-	=1-	=1-	=1-	=1-	=1-	=1-	=1-	=1-	=1-	=1-	=1-
1.d	Tout	Pen-	Et	1d	Tout	Pen-	Et	1a	Tout	Pen-	Et
.	.	.	.	1d	a	-sez	non	2.a/	a	-sez	non
2B-\	a	-sez	non	.	.	.	.	.	.	.	.
.	.	.	.	.	.	.	.	4b-i\	.	.	.
1A	par	quel	pour-	1e	par	quel	pour-	1cc	par	quel	pour-
=2	=2	=2	=2	=2	=2	=2	=2	=2	=2	=2	=2
1D	moy,	deul	-tant,	1d	moy,	deul	-tant,	1.dd	moy,	deul	-tant,
2r	.	.	.	1f	.	.	.	.	.	.	.
2D\	af-	mon	se	.	.	.	.	2cc\	.	.	.
1F	.	.	.	1f	af-	mon	se	1a	af-	mon	se
=3	=3	=3	=3	=3	=3	=3	=3	=3	=3	=3	=3
1C	-fin	des-	mou-	1e	-fin	des-	mou-	1g	-fin	des-	mou-
2G\	qu'on	-plai-	-rir	0d	qu'on	-plai-	-rir	2b-i\	qu'on	-plai-	-rir
2F\	.	.	.	.	.	.	.	1a	.	.	.
1D	.	.	.	.	.	.	.	.	.	.	.
.	.	.	.	.	.	.	.	2f/	.	.	.
=4	=4	=4	=4	=4	=4	=4	=4	=4	=4	=4	=4
1A	ne	-sir	en	1c	ne	-sir	en	1e	ne	-sir	en
2F\	me	m'en	de-	1d	me	m'en	de-	2d/	me	m'en	de-
2D\	.	.	.	.	.	.	.	2.f/	.	.	.
1F	voy-	voy-	-voy-	1A	.	.	.	.	.	.	.
.	.	.	.	.	.	.	.	4g/	.	.	.
.	.	.	.	.	.	.	.	2a/	.	.	.
=5	=5	=5	=5	=5	=5	=5	=5	=5	=5	=5	=5
1D	.	.	.	2r	.	.	.	2f/	voy-	voy-	-voy-
.	.	.	.	2d\	voy-	voy-	-voy-	2.b-\	.	.	.
2r	.	.	.	2c\	.	.	.	.	.	.	.
.	.	.	.	.	.	.	.	4a/	.	.	.
2F\	.	.	.	2A/	.	.	.	1a	.	.	.
1G	.	.	.	1B-	.	.	.	.	.	.	.
.	.	.	.	.	.	.	.	2g/	.	.	.
=6	=6	=6	=6	=6	=6	=6	=6	=6	=6	=6	=6
1D	.	.	.	0A	.	.	.	2a/	.	.	.
.	.	.	.	.	.	.	.	4g/	.	.	.
.	.	.	.	.	.	.	.	4f/	.	.	.
2r	.	.	.	.	.	.	.	2e/	.	.	.
2A\	.	.	.	.	.	.	.	2f/	.	.	.
2G\	.	.	.	2E/	.	.	.	2g/	.	.	.
[2F\	.	.	.	2F/	.	.	.	2a/	.	.	.
=7	=7	=7	=7	=7	=7	=7	=7	=7	=7	=7	=7
2F\]	.	.	.	1A	.	.	.	2f/	.	.	.
2c\	.	.	.	.	.	.	.	2.e/	.	.	.
2B-\	.	.	.	2G/	.	.	.	.	.	.	.
.	.	.	.	.	.	.	.	4d/	.	.	.
1A	.	.	.	2F/	.	.	.	1d	.	.	.
.	.	.	.	1E	.	.	.	.	.	.	.
2G\	.	.	.	.	.	.	.	2c#i/	.	.	.
=8	=8	=8	=8	=8	=8	=8	=8	=8	=8	=8	=8
1A	-e,	-e,	-e,	0D	-e,	-e,	-e,	1d	-e,	-e,	-e,
1d	.	.	.	.	.	.	.	1r	.	.	.
4d\	Si	Car	En	1r	.	.	.	1a	Si	Car	En
4c\	.	.	.	.	.	.	.	.	.	.	.
4B-\	.	.	.	.	.	.	.	.	.	.	.
4A\	.	.	.	.	.	.	.	.	.	.	.
=9	=9	=9	=9	=9	=9	=9	=9	=9	=9	=9	=9
1G	tres-	j'ay	la	1G	Si	Car	En	1b-	.	.	.
1D	.	.	.	2F/	.	.	.	2a/	.	.	.
.	.	.	.	1F	tres-	j'ay	la	1a	tres-	j'ay	la
2r	.	.	.	.	.	.	.	.	.	.	.
[2d\	-do-	des	pour-	2D/	.	.	.	2f/	.	.	.
=10	=10	=10	=10	=10	=10	=10	=10	=10	=10	=10	=10
2d\]	.	.	.	1E	-do-	des	pour-	1g	-do-	des	pour-
2c#i\	.	.	.	.	.	.	.	.	.	.	.
0d	-lent	maulx	-suitte	1D	-lent	maulx	-suitte	1f	-lent	maulx	-suitte
.	.	.	.	1r	.	.	.	1r	.	.	.
=11	=11	=11	=11	=11	=11	=11	=11	=11	=11	=11	=11
0G	que	a	de	1d	que	a	de	1b-i	que	a	de
.	.	.	.	2G/	plus	si	vous	1b-	plus	si	vous
.	.	.	.	1d	.	.	.	.	.	.	.
1F	plus	si	vous	.	.	.	.	1a	je	tres-	ser-
.	.	.	.	[2c\	je	tres-	ser-	.	.	.	.
=12	=12	=12	=12	=12	=12	=12	=12	=12	=12	=12	=12
2C/	je	tres-	ser-	2c\]	.	.	.	1g	ne	-grant	-vir,
2.G\	ne	-grant	-vir,	1B-	ne	-grant	-vir,	.	.	.	.
.	.	.	.	.	.	.	.	1dd	pour-	mont-	ma
4A\	.	.	.	.	.	.	.	.	.	.	.
2B-\	.	.	.	2G/	pour-	mont-	ma	.	.	.	.
2F\	.	.	.	2A/	.	.	.	2cc\	.	.	.
2G\	.	.	.	2G/	.	.	.	[2b-\	.	.	.
=13	=13	=13	=13	=13	=13	=13	=13	=13	=13	=13	=13
1D	pour-	mont-	ma	2.d\	-roy-	-joy-	joy-	2b-\]	.	.	.
.	.	.	.	.	.	.	.	2.a/	-roy-	-joy-	joy-
.	.	.	.	4c\	.	.	.	.	.	.	.
1G	-roy-	-joy-	joy-	2B-\	.	.	.	.	.	.	.
.	.	.	.	.	.	.	.	4g/	.	.	.
.	.	.	.	2G/	.	.	.	1g	.	.	.
1D	.	.	.	1A	.	.	.	.	.	.	.
.	.	.	.	.	.	.	.	2f#i/	.	.	.
=14	=14	=14	=14	=14	=14	=14	=14	=14	=14	=14	=14
1d	-e,	-e	-e,	1G	-e,	-e	-e,	0.g	-e,	-e	-e,
2B-\	.	.	.	1r	.	.	.	.	.	.	.
1G	.	.	.	.	.	.	.	.	.	.	.
.	.	.	.	1B-	Je	Que	Et	.	.	.	.
2d\	Je	Que	Et	.	.	.	.	.	.	.	.
=15	=15	=15	=15	=15	=15	=15	=15	=15	=15	=15	=15
2c\	me	je	fus-	2A/	me	je	fus-	0.r	.	.	.
2A\	.	.	.	1A	tiens	crains	-siez	.	.	.	.
1B-	tiens	crains	-siez	.	.	.	.	.	.	.	.
.	.	.	.	2G/	.	.	.	.	.	.	.
2A\	.	.	.	1A	seul	fort	vous	.	.	.	.
2F\	.	.	.	.	.	.	.	.	.	.	.
=16	=16	=16	=16	=16	=16	=16	=16	=16	=16	=16	=16
1G	seul	fort	vous	2r	.	.	.	1b-	Je	Que	Et
.	.	.	.	1d	comme	que	plus	.	.	.	.
1F	.	.	.	.	.	.	.	2a/	me	je	fus-
.	.	.	.	2c\	.	.	.	1a	tiens	crains	-siez
2r	.	.	.	1B-	.	.	.	.	.	.	.
2G\	comme	que	plus	.	.	.	.	2g/	.	.	.
=17	=17	=17	=17	=17	=17	=17	=17	=17	=17	=17	=17
2F\	u-	brief-	fort	1A	u-	brief-	fort	1a	seul	fort	vous
1D	.	.	.	.	.	.	.	.	.	.	.
.	.	.	.	0d	.	.	.	1f	comme	que	plus
2F\	.	.	.	.	.	.	.	.	.	.	.
1G	-ne	-ment	.	.	.	.	.	1b-i	u-	brief-	fort
=18	=18	=18	=18	=18	=18	=18	=18	=18	=18	=18	=18
2r	.	.	.	1c	.	.	.	1a	.	.	.
2F\	e-	je	mon	.	.	.	.	.	.	.	.
2G\	.	.	en-	2B-\	.	.	.	2g/	.	.	.
2E\	.	.	.	2G/	.	.	.	1g	.	.	.
1D	.	.	.	1A	.	.	.	.	.	.	.
.	.	.	.	.	.	.	.	2f#i/	.	.	.
=19	=19	=19	=19	=19	=19	=19	=19	=19	=19	=19	=19
2E\	.	.	.	1G	-ne	-ment	mon	1g	-ne	-ment	mon
2G\	.	.	.	.	.	.	.	.	.	.	.
2D\	.	.	.	1.d	e-	je	en-	2r	.	.	.
1F	.	.	.	.	.	.	.	2d/	e-	je	en-
.	.	.	.	.	.	.	.	2f/	-ba-	m'oc-	-ne-
2C/	-ba-	m'oc-	-ne-	2e\	-ba-	m'oc-	-ne-	2g/	.	.	.
=20	=20	=20	=20	=20	=20	=20	=20	=20	=20	=20	=20
2G\	-y-	-cy-	-my-	2d\	-y-	-cy-	-my-	2b-i\	-y-	-cy-	-my-
2A\	.	.	.	2c\	.	.	.	1a	.	.	.
2E\	.	.	.	1B-	.	.	.	.	.	.	.
2r	.	.	.	.	.	.	.	2g/	.	.	.
2F\	.	.	.	1A	.	.	.	2a/	.	.	.
2D\	.	.	.	.	.	.	.	2f/	.	.	.
=21	=21	=21	=21	=21	=21	=21	=21	=21	=21	=21	=21
0.AN	-e	-e	-e,&	0.cN	-e	-e	-e,&	0.eN	-e	-e	-e,&
=22	=22	=22	=22	=22	=22	=22	=22	=22	=22	=22	=22
1d	Fai-	N'ay-	.	0.r	.	.	.	1f	Fai-	N'ay-	.
1d	-sant	-ez	.	.	.	.	.	1d	-sant	-ez	.
1c#i	re-	pa-	.	.	.	.	.	1e	re-	pa-	.
=23	=23	=23	=23	=23	=23	=23	=23	=23	=23	=23	=23
1.d	-grez	-our	.	1f	Fai-	N'ay-	.	1d	-grez	-our	.
.	.	.	.	1d	-sant	-ez	.	2r	.	.	.
2B-\	de	qu'a	.	.	.	.	.	1dd	de	qu'a	.
2A\	.	.	.	1e	re-	pa-	.	.	.	.	.
2c\	.	.	.	.	.	.	.	2cc\	.	.	.
=24	=24	=24	=24	=24	=24	=24	=24	=24	=24	=24	=24
2B-\	ma	ja-	.	1d	-grez	-our	.	1dd	ma	ja-	.
2G\	.	.	.	.	.	.	.	.	.	.	.
1F	.	.	.	1f	de	qu'a	.	2a/	dou-	-maiz	.
.	.	.	.	.	.	.	.	1cc	-lan-	vous	.
2A\	dou-	-maiz	.	2c\	ma	ja-	.	.	.	.	.
2G\	.	.	.	2d\	.	.	.	2b-i\	-te	ou-	.
=25	=25	=25	=25	=25	=25	=25	=25	=25	=25	=25	=25
2A\	-lan-	vous	.	2c\	dou-	-maiz	.	1a	vi-	-bli-	.
1D	.	.	.	1f	-lan-	vous	.	.	.	.	.
.	.	.	.	.	.	.	.	2d/	.	.	.
2G\	-te	ou-	.	2e\	-te	ou-	.	2e/	.	.	.
2F\	.	.	.	2d\	vi-	-bli-	.	2f/	.	.	.
2C/	.	.	.	2e\	.	.	.	2g/	.	.	.
=26	=26	=26	=26	=26	=26	=26	=26	=26	=26	=26	=26
2.D\	vi-	-bli-	.	2.d\	.	.	.	2b-i\	.	.	.
.	.	.	.	.	.	.	.	1a	.	.	.
4E\	.	.	.	4c\	.	.	.	.	.	.	.
2F\	.	.	.	2A/	.	.	.	.	.	.	.
2D\	.	.	.	1d	.	.	.	2f/	.	.	.
1A	.	.	.	.	.	.	.	1e	.	.	.
.	.	.	.	2c#i\	.	.	.	.	.	.	.
=27	=27	=27	=27	=27	=27	=27	=27	=27	=27	=27	=27
2F\	.	.	.	0d	-e	-e	.	1d	-e	-e	.
2D\	.	.	.	.	.	.	.	.	.	.	.
1D	-e	-e	.	.	.	.	.	1r	.	.	.
1r	.	.	.	[1A	et	car	.	1f	et	car	.
=28	=28	=28	=28	=28	=28	=28	=28	=28	=28	=28	=28
1D	et	car	.	1A]	.	.	.	1f	de	c'est	.
1G	de	c'est	.	1B-	de	c'est	.	0g	for-	mon	.
1d	for-	mon	.	1B-	for-	mon	.	.	.	.	.
=29	=29	=29	=29	=29	=29	=29	=29	=29	=29	=29	=29
2c\	-tu-	sort	.	1A	-tu-	sort	.	2a/	-tu-	sort	.
2A\	-ne	.	.	.	.	.	.	1cc	.	.	.
2r	.	.	.	1G	-ne	.	.	.	.	.	.
2G\	qui	qu'il	.	.	.	.	.	2b-i\	.	.	.
1F	.	.	.	2r	.	.	.	1a	-ne	.	.
.	.	.	.	2c\	qui	qu'il	.	.	.	.	.
=30	=30	=30	=30	=30	=30	=30	=30	=30	=30	=30	=30
2G\	.	fault	.	2B-\	.	.	.	2g/	qui	qu'il	.
2D\	.	.	.	1A	.	.	.	2a/	.	.	.
2r	.	.	.	.	.	.	.	2cc\	.	.	.
2G\	si	que	.	2G/	.	.	.	2b-i\	.	.	.
2A\	.	.	.	1F	si	fault	.	2cc\	.	.	.
2c\	.	.	.	.	.	.	.	[2a/	si	fault	.
=31	=31	=31	=31	=31	=31	=31	=31	=31	=31	=31	=31
1d	fort	vos-	.	2r	.	.	.	2a/]	.	.	.
.	.	.	.	2B-\	fort	que	.	2g/	.	.	.
2c\	.	.	.	2A/	.	vos-	.	1f	.	.	.
2.B-\	.	.	.	1G	.	.	.	.	.	.	.
.	.	.	.	.	.	.	.	2e/	fort	que	.
4G\	.	.	.	.	.	.	.	.	.	.	.
2A\	.	.	.	2F/	.	.	.	[2a/	.	vos-	.
=32	=32	=32	=32	=32	=32	=32	=32	=32	=32	=32	=32
2c\	.	.	.	2E/	.	.	.	4a/]	.	.	.
.	.	.	.	.	.	.	.	4g/	.	.	.
2d\	.	.	.	2D/	.	.	.	2.f/	.	.	.
2c\	.	.	.	1F	.	.	.	.	.	.	.
.	.	.	.	.	.	.	.	4e/	.	.	.
1A	.	.	.	.	.	.	.	1d	.	.	.
.	.	.	.	1E	.	.	.	.	.	.	.
2G\	.	.	.	.	.	.	.	2c#i/	.	.	.
=33	=33	=33	=33	=33	=33	=33	=33	=33	=33	=33	=33
1A	.	.	.	0D	.	-tre	.	1d	.	-tre	.
1D	.	.	.	.	.	.	.	2r	.	.	.
.	.	.	.	.	.	.	.	2a/	me	soy-	.
2G\	me	-tre	.	2r	.	.	.	2b-i\	guer-	.	.
2F\	.	.	.	2A/	me	soy-	.	2cc\	.	.	.
=34	=34	=34	=34	=34	=34	=34	=34	=34	=34	=34	=34
2r	.	.	.	2B-\	guer-	.	.	2.dd\	-roy-	.	.
2A\	guer-	soy-	.	2c\	.	.	.	.	.	.	.
.	.	.	.	.	.	.	.	4cc\	.	.	.
2D\	.	.	.	2.d\	-roy-	.	.	2.a/	.	.	.
1F	-roy-	.	.	.	.	.	.	.	.	.	.
.	.	.	.	4c\	.	.	.	4b-i\	.	.	.
.	.	.	.	2.A/	.	.	.	2cc\	.	.	.
2D\	.	.	.	.	.	.	.	[2dd\	.	.	.
.	.	.	.	4B-\	.	.	.	.	.	.	.
=35	=35	=35	=35	=35	=35	=35	=35	=35	=35	=35	=35
2A\	.	.	.	2c\	.	.	.	4dd\]	.	.	.
.	.	.	.	.	.	.	.	4cc\	.	.	.
2.G\	.	.	.	2d\	.	.	.	2.b-i\	.	.	.
.	.	.	.	2G/	.	.	.	.	.	.	.
4F\	.	.	.	.	.	.	.	4a/	.	.	.
2G\	.	.	.	2B-\	.	.	.	1g	.	.	.
1D	.	.	.	1A	.	.	.	.	.	.	.
.	.	.	.	.	.	.	.	2f#i/	.	.	.
=36	=36	=36	=36	=36	=36	=36	=36	=36	=36	=36	=36
0.dl	-e.	-e.	.	0.Gl	-e.	-e.	.	0.gl	-e.	-e.	.
==	==	==	==	==	==	==	==	==	==	==	==
*-	*-	*-	*-	*-	*-	*-	*-	*-	*-	*-	*-
!!!RDF**kern: l=long note in original notation
!!!RDF**kern: i=editorial accidental
!!!RDF**kern: N=signum congruentiae
!!!ENC: Jesse Rodin
!!!END: 2018/01/11/
!!!EED: Jesse Rodin
!!!EEV: 2018/01/18/
!!!ONB: Translated from MusicXML and edited on 2018/01/18/ by Craig Sapp
!!muse2ps: C^@{COM}(?)/Binchois?^i2I150v95,95,150z18l2600c180
